!!!!SEGMENT: pl-sa--549-a-ix-29--007_anonim--marsz-francuski.krn
!!!cenid: 18xx:463
!!!COM: Anonim
!!!COM-rismid: pe30004985
!!!CDT:
!!!CNT:
!!!OTL: Marsz francuski
!!!PDT:
!!!AGN: Secular; March
!!!SMS-siglum: PL-SA
!!!SMS-shelfmark: 549/A IX 29
!!!SMS-shelfwork: 007 W
!!!SMS-variant:
!!!SMS-altvar:
!!!NIFC-rismid: 1001068323
!!!URL-scan: http://bc.bdsandomierz.pl/dlibra/publication/1441/edition/1409/content
!!!ONB-nifc: Str. 7
**kern	**kern	**dynam
*part2	*part1	*part1
*staff2	*staff1	*
*Iempty	*Iempty	*
*	*I"pf	*
*clefF4	*clefG2	*
*k[]	*k[]	*
*C:	*C:	*
*M4/4	*M4/4	*
*met(c)	*met(c)	*
*>[A,A,B,B,C,C,D,D,E,E,F,F,G,G,H,H,I,I,J,J,K]	*	*
=1	=1	=1
*>A	*	*
!	!LO:SIC:s:o:v:t= klucze tylko w 1 systemie	!
!LO:SIC:s:o:v:t= klucz basowy między 1 a 4 linią	!LO:TX:a:t=Marsz Francuski	!
4C 4GG 4EE 4CC/	4ccc 4gg 4ff 4ee 4cc\	f
8.CL 8.GG 8.EE 8.CC/	8.ccL 8.g 8.e/	.
16CJk 16GG 16EE 16CC/	16ccJk 16g 16e/	.
4C 4GG 4EE 4CC/	4cc 4g 4e/	.
4C 4GG 4EE 4CC/	4cc 4g 4e/	.
=2	=2	=2
8C/L	2cc 2g 2e/	.
8GG/	.	.
8EE/	.	.
8CC/J	.	.
8CC/L	2g 2e 2c/	.
8EE/	.	.
8GG/	.	.
8C/J	.	.
=3	=3	=3
!	!LO:SIC:o:v= przekreślony akord	!
2C 2CC/	4cc 4g 4e/	.
.	8g\L	.
.	8cc\J	.
2C 2CC/	4ee 4cc 4g\	.
.	8dd/L	.
.	8cc/J	.
=4	=4	=4
!	!LO:SIC:o:v= przekreślony akord	!
4G 4GG/	4dd 4b 4g/	.
8.GGL 8.BBB/	8.gL 8.d 8.B/	.
16GGJk 16BBB/	16gJk 16d 16B/	.
4GG 4BBB/	4g 4d 4B/	.
4r	4r	.
=5	=5	=5
2G 2FF/	4dd 4b\	.
.	8bL 8g\	.
.	8ddJ 8b\	.
2G 2GG/	4ff 4dd\	.
.	8ddL 8b\	.
.	8ffJ 8dd\	.
=6	=6	=6
4c 4C\	4ee 4cc 4g\	.
8.CL 8.CC/	8.ccL 8.g 8.e/	.
16CJk 16CC/	16ccJk 16g 16e/	.
2C 2CC/	2cc 2g 2e/	.
=7:|!|:	=7:|!|:	=7:|!|:
*>B	*	*
.	8qff#X/	p
2r	8gg\L	.
.	8qff#/	.
.	8gg\J	.
.	8qdd#X/	.
.	4ee\	.
8.CL 8.CC/	8.ccL 8.g 8.e\	.
16CJk 16CC/	16ccJk 16g 16e\	.
4C 4CC/	4cc 4g 4e\	f
!!LO:LB:g=original
=8	=8	=8
.	8qff/	p
2r	8gg\L	.
.	8qff/	.
.	8gg\J	.
.	4cc#X\	.
8.GGL 8.GGG/	8.gL 8.d 8.B/	.
16GGJk 16GGG/	16gJk 16d 16B/	f
4GG 4GGG/	4g 4d 4B/	.
=9:|!|:	=9:|!|:	=9:|!|:
*>C	*	*
8C\L	8cc\L	.
8D\	8dd\	.
8E\	8ee\	.
8F\J	8ff\J	.
4G\	4gg\	.
8E\L	8ee\L	.
8C\J	8cc\J	.
=10	=10	=10
!	!LO:SIC:o:v= przekreślony akord	!
!	!LO:N:vis=4.	!
4.G\	4..gg 4..dd 4..b 4..g\	.
8G\	.	.
.	16gg\	.
8D/L	8dd\L	.
8BB/J	8b\J	.
4GG/	4g/	.
=11	=11	=11
*2\right	*	*
*tremolo	*	*
!	!LO:TX:b:t=Dolce	!
8B 8G\L	4.dd\	.
8d\	.	.
8B 8G\	.	.
8d\J	16ee\LL	.
.	16dd\JJ	.
8B 8G\L	2b\	.
8d\	.	.
8B 8G\	.	.
8d\J	.	.
=12	=12	=12
8B 8F#X\L	8a\L	.
8d\	8b\	.
8B 8F#X\	8cc\	.
8d\J	8dd\J	.
8B 8G\L	2cc\	.
8d\	.	.
8B 8G\	.	.
8d\J	.	.
=13	=13	=13
8B 8G\L	8dd\L	.
8d\	8ddS\	.
8B 8G\	8gg\	.
8d\J	8ff\J	.
*rep	*	*
8B 8G\L	8ee\L	.
8d\	8dd\	.
8B 8G\	8cc\	.
8d\J	8b\J	.
*Xrep	*	*
=14	=14	=14
8A 8F#X\L	8a\L	.
8d\	8b\	.
8A 8F#X\	8cc\	.
8d\J	8dd\J	.
8B 8G\L	4b\	.
8d\	.	.
8B 8G\	4r	.
8d\J	.	.
=15	=15	=15
!	!	!LO:DY
8B 8G\L	4..gg 4..dd 4..b\	f
8d\	.	.
8B 8G\	.	.
8d\J	.	.
.	16b\	.
*rep	*	*
8B 8G\L	4.b\	.
8d\	.	.
8B 8G\	.	.
8d\J	8b\	.
*Xrep	*	*
=16	=16	=16
!	!LO:SIC:s:o:v=8f#	!
8A 8F#X\L	8aL 8f\	.
8d\	8b 8g\	.
8A 8F#X\	8cc 8a\	.
8d\J	8ddJ 8b\	.
8B 8G\L	4.b 4.g\	.
8d\	.	.
8B 8G\	.	.
8d\J	8b 8g\	.
!!LO:LB;g=original
=17	=17	=17
*rep	*	*
8A 8F#X\L	8ddL 8b\	.
8d\	8dd 8bS\	.
8A 8F#X\	8gg 8ee\	.
!	!LO:SIC:o:s:v=8ff#	!
8d\J	8ffJ 8dd\	.
8B 8G\L	8eeL 8cc\	.
8d\	8dd 8b\	.
8B 8G\	8cc 8a\	.
8d\J	8bJ 8g\	.
*Xrep	*	*
=18	=18	=18
8A 8F\L	8aL 8f/	.
8d\	8b 8g/	.
8A 8F\	8cc 8a/	.
8d\J	8ddJ 8b/	.
8B 8G\L	4b 4g/	.
8d\	.	.
8B 8G\	4r	.
8d\J	.	.
*Xtremolo	*	*
=19	=19	=19
!	!LO:SIC:o:v= przekreślony akord	!
4G 4GG/	4gg 4dd 4b 4g\	ff
8.GL 8.GG/	8.ggL 8.dd 8.b 8.g\	.
16GJk 16GG/	16ggJk 16dd 16b 16g\	.
4G 4GG/	8.ggL 8.ee\	.
.	16ff#XK 16dd\	.
4r	8.ee 8.cc\	.
.	16dd#XJk 16b\	.
=20	=20	=20
4c 4C\	4ee 4cc\	.
8.cL 8.C\	8.eeL 8.cc\	.
16cJk 16C\	16eeJk 16cc\	.
4c 4C\	8.eeL 8.cc\	.
.	16ggK 16ee\	.
4r	8.ff 8.dd\	.
.	16eeJk 16cc\	.
=21	=21	=21
4GG/	8ddL 8b\	.
.	8gg 8dd\	.
4G\	8b 8g\	.
.	8ddJ 8b\	.
4D/	8ddL 8b\	.
.	8cc 8a\	.
4d\	8b 8g\	.
.	8aJ 8f\	.
=22!|:	=22!|:	=22!|:
*>D	*	*
8A 8F 8D\L	8aL 8f\	.
8d\	8b 8g\	.
8A 8F 8D\	8cc 8a\	.
8d\J	8ddJ 8b\	.
8B 8G\@@8@L	4.b 4.g\	.
8d\	.	.
8B 8G\@@8@	.	.
8d\J	8b 8g\	.
=23	=23	=23
*rep	*	*
8A 8F 8D\L	8g/L	.
8d\	8f#X/	.
8A 8F 8D\	8g/	.
8d\J	8e/J	.
8B 8G\L	4.f#/	.
8d\	.	.
8B 8G\	.	.
8d\J	8g/	.
*Xrep	*	*
*Xtremolo	*	*
=24:|!|:	=24:|!|:	=24:|!|:
*>E	*	*
4G 4GG/	8g/L	.
.	8g/	.
4D 4DD/	8a/	.
.	8f/J	.
*rep	*rep	*
4G 4GG/	8g/L	.
.	8g/	.
4D 4DD/	8a/	.
.	8f/J	.
*Xrep	*Xrep	*
=25	=25	=25
4G 4GG/	4g/	.
8.GL 8.GG/	8.ggL 8.dd 8.b\	.
16GJk 16GG/	16ggJk 16dd 16b\	.
4G 4GG/	4gg 4dd 4b\	.
4r	4r	.
!!LO:LB:g=original
=26:|!|:	=26:|!|:	=26:|!|:
*>F	*	*
4E 4EE/	4ee 4e/	f
8EL 8EE/	8eeL 8e/	.
8EJ 8EE/	8eeJ 8e/	.
4E 4EE/	4ee 4e/	.
4E 4EE/	4ee 4e/	.
=27	=27	=27
2D#X 2DD#X/	2dd#X 2d#X/	.
8EL 8EE/	8eeL 8e/	.
8F 8FF/	8ffn 8dn/	.
8E 8EE/	8ee 8e/	.
8D#XJ 8DD#/	8dd#XJ 8d#X/	.
=28	=28	=28
!	!LO:SIC:v:t=takt na 2/4	!
4E 4EE/	4ee 4e/	.
4BB 4BBB/	4b 4B/	.
=29	=29	=29
4E 4EE/	4ee 4e/	.
4D 4DD/	4ddn 4dn/	.
4C 4CC/	4cc 4c/	.
4BB 4BBB/	4b 4B/	.
=30	=30	=30
4AA 4AAA/	4a 4A/	.
4E 4EE/	4.b\	.
2r	.	.
.	8g#X/	.
.	4e/	.
=31	=31	=31
!LO:TX:a:t=1	!	!
1r	4g#X/	.
.	8a/L	.
.	8b/	.
.	8cc/	.
.	8a/J	.
.	4r	.
=32	=32	=32
!LO:TX:a:t=1	!	!
1r	4.b\	.
!	!LO:N:vis=4	!
.	8g\	.
.	4e/	.
.	4r	.
=33	=33	=33
!LO:TX:a:t=1	!LO:TX:a:t=1	!
1r	1r	.
=34	=34	=34
4c 4A\	8.ee\L	p
.	16ff\K	.
4e\	8.ee\	.
.	16ff\Jk	.
2r	8.ee\L	.
.	16ff\K	.
.	8.ee\	.
.	16ff\Jk	.
=35	=35	=35
4B 4G#X\	8.ee\L	.
.	16dd\K	.
4e\	8.cc\	.
.	16b\Jk	.
4c 4A\	8.a\L	.
.	16b\K	.
4e\	8.cc\	.
.	16dd\Jk	.
=36	=36	=36
4c 4A\	8eeL 8cc\	.
.	8ff 8dd\	.
4e\	8ee 8cc\	.
.	8ffJ 8dd\	.
2r	8eeL 8cc\	.
.	8ff 8dd\	.
.	8ee 8cc\	.
.	8ffJ 8dd\	.
!!LO:LB:g=original
=37	=37	=37
4B 4G\	8eeL 8cc\	.
.	8dd 8b\	.
4e\	8cc 8a\	.
.	8bJ 8g-X\	.
8A/L	4a/	.
8E/	.	.
8C/	4r	.
8AA/J	.	.
=38!|:	=38!|:	=38!|:
*>G	*	*
4C 4CC/	4gg 4ee\	.
8CL 8CC/	8ggL 8ee\	.
8CJ 8CC/	8ggJ 8ee\	.
4C 4CC/	8ggL 8ee\	.
.	8aa 8ff\	.
4r	8gg 8ee\	.
.	8ffJ 8dd\	.
=39	=39	=39
8c\L	1r	.
8G\	.	.
8E\	.	.
8G\J	.	.
8c\L	.	.
8G\	.	.
8E\	.	.
8C\J	.	.
=40:|!	=40:|!	=40:|!
*>H	*	*
4G 4GG/	8dd\L	.
.	8gg\	.
4C 4CC/	8ee\	.
.	8cc\J	.
*rep	*rep	*
4G 4GG/	8dd\L	.
.	8gg\	.
4C 4CC/	8ee\	.
.	8cc\J	.
*Xrep	*Xrep	*
=41	=41	=41
!LO:N:vis=8	!	!
4GL 4GG/	4gg 4dd 4b\	.
8.G 8.GG/	8.ggL 8.dd 8.b\	.
16GJk 16GG/	16ggJk 16dd 16b\	.
8G\L	4gg 4dd 4b\	.
8F\	.	.
8E\	4r	.
8D\J	.	.
=42	=42	=42
*clefG2	*	*
4e 4c/	4.gg\	.
4g/	.	.
.	16aa\LL	.
.	16gg\JJ	.
2r	4.ee\	.
!	!LO:N:vis=4	!
.	8ee\	.
=43	=43	=43
4G/	8dd\L	.
.	8ee\	.
4g/	8ff\	.
.	8gg\J	.
4g 4e 4c/	4.ee\	.
4g/	.	.
.	8ee\	.
=44	=44	=44
4e 4c/	8gg\L	.
.	8gg\	.
4g/	8ccc\	.
.	8bb\J	.
2r	8aa\L	.
.	8gg\	.
.	8ff\	.
.	8ee\J	.
=45	=45	=45
4G/	8dd\L	.
.	8ee\	.
4g/	8ff\	.
.	8gg\J	.
4e 4c/	4.ee\	.
4g/	.	.
.	8ee\	.
=46:|!	=46:|!	=46:|!
*>I	*	*
!LO:CL:ed	!	!
*clefF4	*	*
!LO:SIC:v:t= nieoznaczony powrót klucza basowego	!	!
4c 4C\	4ccc 4gg 4ee\	.
8.cL 8.C\	8.cccL 8.gg 8.ee\	.
16cJk 16C\	16cccJk 16gg 16ee\	.
4c 4C\	8.ccc 8.aa\	.
!	!LO:LB;g=original	!
.	16bb 16gg\	.
!LO:SIC:v:t= custos, dolny głos na 1 systemie, górny przedzielony	!	!
4r	8aaL 8ff\	.
.	8gg#XJ 8ee\	.
!LO:LB;g=original	!	!
=47	=47	=47
4F 4FF/	4aa 4ff\	.
8.FL 8.FF/	8.aaL 8.ff\	.
16FJk 16FF/	16aaJk 16ff\	.
4F 4FF/	8.aaL 8.ff\	.
.	16aaJk 16ff\	.
4r	8.bbL 8.gg\	.
.	16aaJk 16ff\	.
=48	=48	=48
4C 4CC/	8.ggL 8.ee\	.
.	16cccK 16gg\	.
4C 4CC/	8.ee 8.cc\	.
.	16ggJk 16ee\	.
4G 4GG/	8.ffL 8.dd\	.
.	16eeK 16cc\	.
4G 4GG/	8.dd 8.b\	.
.	16ccJk 16a\	.
!LO:CL:ed	!	!
*clefG2	*	*
=49!|:	=49!|:	=49!|:
*>J	*	*
!LO:SIC:v:t=nieoznaczone przejście do klucza wiolinowego	!	!
!LO:SIC:v:t=takt na 3/4	!	!
8G/L	8ddL 8b\	.
8g/J	8ee 8cc\	.
*rep	*	*
8G/L	8ff 8dd\	.
8g/J	8ggJ 8ee\	.
*Xrep	*	*
8gL 8e 8c/	4.ee 4.cc\	.
8g/J	.	.
4ryy	.	.
.	8ee 8cc\	.
=50	=50	=50
*rep	*	*
8G/L	8dd\L	.
8g/J	8cc#X\	.
8G/L	8dd\	.
8g/J	8b\J	.
!	!LO:SIC:o:s:v=4.ccn	!
8gL 8e 8c/	4.cc#\	.
8g/J	.	.
4ryy	.	.
!	!LO:N:vis=4	!
.	8cc#\	.
*Xrep	*	*
*clefF4	*	*
=51:|!	=51:|!	=51:|!
*>K	*	*
!LO:SIC:v:t=nieoznaczony powrót klucza basowego	!LO:SIC:v:t=obiegnik nad całą grupą 8	!
4c 4C/	8cc\L	.
.	8cc\	.
4G 4GG/	8dd\	.
.	8b\J	.
*rep	*rep	*
4c 4C/	8cc\L	.
.	8cc\	.
4G 4GG/	8dd\	.
.	8b\J	.
*Xrep	*Xrep	*
=52	=52	=52
4C/	4cc\	.
8.CL 8.GG 8.EE 8.CC/	8.cccL 8.gg 8.ee 8.cc\	.
16CJk 16GG 16EE 16CC/	16cccJk 16gg 16ee 16cc\	.
4C 4GG 4EE 4CC/	4ccc 4gg 4ee 4cc\	.
4r	4r	.
==	==	==
*-	*-	*-
!!!system-decoration: [(s1,s2)]
!!!RDF**dynam: p = pia
!!!RDF**dynam: f = for
!!!RDF**dynam: ff = ffor
!!!AIN: 2 empty
!!!ENC: Marta Chmielewska
!!!END: 2020-06-16
!!!ENC: Leszek Kubiak
!!!END: 2022-01-04
